icons/terminal-16.svg

<svg xmlns="http://www.w3.org/2000/svg" width="16" height="16" viewBox="0 0 16 16">
  <defs/>
  <path d="M0,2.75 C0,1.784 0.784,1 1.75,1 L14.25,1 C15.216,1 16,1.784 16,2.75 L16,13.25 C16,14.216 15.216,15 14.25,15 L1.75,15 C0.784,15 0,14.216 0,13.25 Z M1.75,2.5 C1.612,2.5 1.5,2.612 1.5,2.75 L1.5,13.25 C1.5,13.388 1.612,13.5 1.75,13.5 L14.25,13.5 C14.388,13.5 14.5,13.388 14.5,13.25 L14.5,2.75 C14.5,2.612 14.388,2.5 14.25,2.5 Z M7.25,8 C7.25,8.199 7.171,8.389 7.03,8.53 L4.78,10.78 C4.593,10.981 4.311,11.063 4.046,10.995 C3.78,10.928 3.572,10.72 3.505,10.454 C3.437,10.189 3.519,9.907 3.72,9.72 L5.44,8 L3.72,6.28 C3.519,6.093 3.437,5.811 3.505,5.546 C3.572,5.28 3.78,5.072 4.046,5.005 C4.311,4.937 4.593,5.019 4.78,5.22 L7.03,7.47 C7.171,7.61 7.25,7.801 7.25,8 Z M8.75,9.5 L11.75,9.5 C12.164,9.5 12.5,9.836 12.5,10.25 C12.5,10.664 12.164,11 11.75,11 L8.75,11 C8.336,11 8,10.664 8,10.25 C8,9.836 8.336,9.5 8.75,9.5 Z"/>
</svg>

<svg xmlns="http://www.w3.org/2000/svg" width="16" height="16" viewBox="0 0 16 16"><path fill-rule="evenodd" d="M0 2.75C0 1.784.784 1 1.75 1h12.5c.966 0 1.75.784 1.75 1.75v10.5A1.75 1.75 0 0114.25 15H1.75A1.75 1.75 0 010 13.25V2.75zm1.75-.25a.25.25 0 00-.25.25v10.5c0 .138.112.25.25.25h12.5a.25.25 0 00.25-.25V2.75a.25.25 0 00-.25-.25H1.75zM7.25 8a.75.75 0 01-.22.53l-2.25 2.25a.75.75 0 11-1.06-1.06L5.44 8 3.72 6.28a.75.75 0 111.06-1.06l2.25 2.25c.141.14.22.331.22.53zm1.5 1.5a.75.75 0 000 1.5h3a.75.75 0 000-1.5h-3z"/></svg>
